X: 1
T: Denis Murphy's Slide
R: jig, slide
Z: 1998 by John Chambers <jc:trillian.mit.edu>
M: 6/8
L: 1/8
K: D
|: "D"A2D FED | F2A A2f | "G"g2e "D"f2d | "G"e2d "A7"Bcd \
|  "D"A2D FED | F2A A2f | "A7"a2f efe |1 "D"d3 dcB :|1 "D"d3 z3 |]
A \
|: "D"d2e f2f | "G"gfe "D"f2f | "G"gfe "D"fed | "G"e2d "A7"BAB \
|  "D"d2e f2f | "G"gfe "D"f2f | | "A7"a2f efe |1 "D"d3 dcB :|1 "D"d3 z3 |]
